src/img/icons/people_red.svg

<?xml version="1.0" encoding="UTF-8"?>
<svg width="14px" height="20px" viewBox="0 0 14 20" version="1.1" xmlns="http://www.w3.org/2000/svg" xmlns:xlink="http://www.w3.org/1999/xlink">
    <!-- Generator: sketchtool 52.5 (67469) - http://www.bohemiancoding.com/sketch -->
    <title>4DD18F7F-82EE-4DF7-A19E-939585D4A7AD</title>
    <desc>Created with sketchtool.</desc>
    <defs>
        <linearGradient x1="0.25781251%" y1="49.7500002%" x2="101.257813%" y2="49.7500002%" id="linearGradient-1">
            <stop stop-color="#A31D6E" offset="0%"></stop>
            <stop stop-color="#E2245E" offset="100%"></stop>
        </linearGradient>
    </defs>
    <g id="alisontravel.eu-copy" stroke="none" stroke-width="1" fill="none" fill-rule="evenodd">
        <g id="Mobile---Country" transform="translate(-42.000000, -470.000000)" fill="url(#linearGradient-1)">
            <g id="Fill-400-Copy-2" transform="translate(42.000000, 470.000000)">
                <path d="M12.5,16.25 C12.5,17.6291667 11.3791667,18.75 10,18.75 L3.75,18.75 C2.37083333,18.75 1.25,17.6291667 1.25,16.25 L1.25,13.75 C1.25,12.4333333 2.26666667,11.3708333 3.55416667,11.2666667 C4.48333333,12.0333333 5.625,12.5 6.875,12.5 C8.12083333,12.5 9.2625,12.0333333 10.1958333,11.2666667 C11.4833333,11.3708333 12.5,12.4333333 12.5,13.75 L12.5,16.25 L12.5,16.25 Z M2.5,6.25 C2.5,3.4875 4.45833333,1.25 6.875,1.25 C9.29166667,1.25 11.25,3.4875 11.25,6.25 C11.25,9.00833333 9.29166667,11.25 6.875,11.25 C4.45833333,11.25 2.5,9.00833333 2.5,6.25 L2.5,6.25 Z M11.1916667,10.2083333 C11.9958333,9.12916667 12.5,7.76208333 12.5,6.25 C12.5,2.79583333 9.98333333,0 6.875,0 C3.76666667,0 1.25,2.79583333 1.25,6.25 C1.25,7.76208333 1.75416667,9.12916667 2.55833333,10.2083333 C1.075,10.7083333 0,12.0958333 0,13.75 L0,16.25 C0,18.3208333 1.67916667,20 3.75,20 L10,20 C12.0708333,20 13.75,18.3208333 13.75,16.25 L13.75,13.75 C13.75,12.0958333 12.675,10.7083333 11.1916667,10.2083333 L11.1916667,10.2083333 Z" id="Fill-400-Copy"></path>
            </g>
        </g>
    </g>
</svg>

<svg xmlns="http://www.w3.org/2000/svg" width="14" height="20" viewBox="0 0 14 20">
    <defs>
        <linearGradient id="a" x1=".258%" x2="101.258%" y1="49.75%" y2="49.75%">
            <stop offset="0%" stop-color="#A31D6E"/>
            <stop offset="100%" stop-color="#E2245E"/>
        </linearGradient>
    </defs>
    <path fill="url(#a)" fill-rule="evenodd" d="M12.5 16.25c0 1.38-1.12 2.5-2.5 2.5H3.75c-1.38 0-2.5-1.12-2.5-2.5v-2.5a2.495 2.495 0 0 1 2.304-2.483c.93.766 2.071 1.233 3.321 1.233 1.246 0 2.387-.467 3.32-1.233A2.495 2.495 0 0 1 12.5 13.75v2.5zm-10-10c0-2.763 1.958-5 4.375-5s4.375 2.237 4.375 5c0 2.758-1.958 5-4.375 5S2.5 9.008 2.5 6.25zm8.692 3.958A6.605 6.605 0 0 0 12.5 6.25C12.5 2.796 9.983 0 6.875 0S1.25 2.796 1.25 6.25c0 1.512.504 2.88 1.308 3.958A3.74 3.74 0 0 0 0 13.75v2.5A3.75 3.75 0 0 0 3.75 20H10a3.75 3.75 0 0 0 3.75-3.75v-2.5a3.74 3.74 0 0 0-2.558-3.542z"/>
</svg>
